assets/icons/teaching.svg

<svg width="26" height="17" viewBox="0 0 26 17" fill="none" xmlns="http://www.w3.org/2000/svg">
    <path d="M3.44746 6.04774L12.1881 2.4733L12.1885 2.47313C12.7181 2.25474 13.3125 2.25474 13.8421 2.47313L13.8424 2.47324L22.5552 6.04774L13.8692 9.79026L3.44746 6.04774ZM3.44746 6.04774L12.1614 9.79026L3.44746 6.04774ZM13.0153 9.96545C13.3088 9.96545 13.5992 9.90589 13.8689 9.79039L13.0153 9.96545ZM13.0153 9.96545C12.7218 9.96545 12.4313 9.90587 12.1615 9.79032L13.0153 9.96545ZM25.15 6.01432L25.15 6.01288C25.1476 5.87296 25.1051 5.73666 25.0275 5.62023C24.9499 5.50379 24.8404 5.41213 24.7122 5.35618L24.7122 5.35614L24.7091 5.35488L14.3914 1.12347C14.3913 1.12344 14.3913 1.12341 14.3912 1.12338C13.5102 0.758883 12.5205 0.758872 11.6395 1.12335C11.6394 1.12339 11.6393 1.12343 11.6392 1.12347L1.29265 5.35483L1.29264 5.35479L1.28946 5.35618C1.16119 5.41213 1.05172 5.50379 0.974101 5.62023L1.09891 5.70343L0.974101 5.62023C0.897289 5.73545 0.854865 5.87011 0.851739 6.00849C0.849456 6.0415 0.849421 6.07462 0.851633 6.10763V15.0582C0.851633 15.2517 0.928508 15.4373 1.06535 15.5742C1.20219 15.711 1.38778 15.7879 1.5813 15.7879C1.77482 15.7879 1.96042 15.711 2.09726 15.5742C2.2341 15.4373 2.31097 15.2517 2.31097 15.0582V7.11298L4.76441 8.17183V13.5801H4.76439L4.76443 13.5825C4.76646 13.7086 4.80113 13.832 4.86507 13.9407C4.92902 14.0494 5.02004 14.1397 5.12926 14.2027L5.12913 14.2029L5.13716 14.207L5.30811 14.2924C7.66539 15.6032 10.3181 16.2911 13.0153 16.2911C15.7125 16.2911 18.3652 15.6032 20.7225 14.2924L20.8934 14.207L20.8936 14.2072L20.9013 14.2027C21.0106 14.1397 21.1016 14.0494 21.1655 13.9407C21.2295 13.832 21.2641 13.7086 21.2662 13.5825L21.2662 13.5825V13.5801V8.1719L24.7405 6.67483L24.7406 6.67507L24.7487 6.67103C24.8701 6.60984 24.972 6.51592 25.0429 6.39989C25.1139 6.28385 25.1509 6.15031 25.15 6.01432ZM6.22375 13.1717V8.82316L11.5791 11.1382L11.5792 11.1383C12.0327 11.3338 12.5214 11.4346 13.0153 11.4346C13.5092 11.4346 13.9979 11.3338 14.4514 11.1383L14.4515 11.1382L19.8069 8.82316V13.1717C17.7179 14.289 15.3852 14.8739 13.0153 14.8739C10.6454 14.8739 8.31266 14.289 6.22375 13.1717Z" fill="white" stroke="white" stroke-width="0.3"/>
</svg>

<svg width="26" height="17" fill="none" xmlns="http://www.w3.org/2000/svg"><path d="m3.447 6.048 8.741-3.575a2.169 2.169 0 0 1 1.654 0l8.713 3.575L13.87 9.79 3.447 6.048Zm0 0 8.714 3.742-8.714-3.742Zm9.568 3.917c.294 0 .584-.06.854-.175l-.854.175Zm0 0c-.293 0-.584-.06-.854-.175l.854.175Zm12.135-3.95v-.002a.73.73 0 0 0-.438-.657l-.003-.001-10.318-4.232a3.599 3.599 0 0 0-2.752 0L1.293 5.355l-.004.001a.73.73 0 0 0-.315.264l.125.083-.125-.083a.73.73 0 0 0-.122.388.73.73 0 0 0 0 .1v8.95a.73.73 0 0 0 1.459 0V7.113l2.453 1.059v5.41a.73.73 0 0 0 .365.62l.008.005.171.085a15.86 15.86 0 0 0 15.415 0l.17-.085.008-.004a.728.728 0 0 0 .365-.62V8.171l3.475-1.497.008-.004a.73.73 0 0 0 .401-.657ZM6.224 13.171V8.823l5.355 2.315a3.628 3.628 0 0 0 2.872 0l5.356-2.315v4.349a14.4 14.4 0 0 1-13.583 0Z" fill="#fff" stroke="#fff" stroke-width=".3"/></svg>
